docs/images/integrations/heap/heap-logo.svg

<svg height="211" viewBox="0 0 607 211" width="607" xmlns="http://www.w3.org/2000/svg"><g fill="none"><g fill="#2d124e" transform="translate(228 44)"><path d="m244.52 31.7c-14.09 0-28.65 8.08-34.36 18.22l8.73 5.05 6.33 3.65c2.64-5.61 11.12-9.91 18.94-9.91h.36c11.12.18 16.61 7.09 16.61 16v7.21c-3.6-2.61-12.61-5.41-20.62-5.41-19.61 0-34.63 11.81-34.63 28.62 0 18.21 15 29 33.23 29 9.088027-.025133 17.654675-4.247557 23.21-11.44l1.78 9.84h16.05v-58.21c-.04-20.2-13.23-32.6-35.63-32.62zm-1.15 76.3h-.59c-9 0-18.32-3.83-18.32-12.81 0-8.77 9.34-12.57 18.32-12.6h.59c9 0 18.32 3.83 18.32 12.6 0 8.93-9.34 12.73-18.32 12.81z"/><path d="m181 96.91c-4.79 7.3-12.79 10.84-22.39 10.84-12.81 0-21.82-9.41-22.42-25h60.65v-7.2c0-26-13.61-43.83-38.63-43.83-24.22 0-41.64 20-41.64 46.63 0 27.42 17.22 46.23 42 46.23 17.48 0 31-7.24 36.78-19.33zm-22.59-48.4c12.21 0 18.42 8.81 18.62 19.61h-40.27c2.4-12.81 10.61-19.61 21.62-19.61z"/><path d="m315.18 155.61h-20v-121.91h16.82l1.63 11.1c3.7-5.07 10.87-13.1 24.89-13.1 26 0 40.48 21.61 40.48 46.43s-15.22 46.43-41.24 46.43c-9.8 0-18.61-4.6-22.61-9.6zm21.16-106c-14.2 0-22.68 12.15-22.68 28.48s8.48 28.48 22.68 28.48 22.66-12.11 22.66-28.44-8.47-28.48-22.66-28.48z"/><path d="m103.64.61v122h-20.82v-51.82h-61.82v51.77h-20.85v-121.95h20.85v51.77h61.85v-51.77z"/></g><path d="m180.57 50.65-84.75-48.93c-2.1435953-1.23999165-4.7864047-1.23999165-6.93 0l-84.75 48.93c-2.14174372 1.2389171-3.46047607 3.5257362-3.46 6v97.86c.00157994 2.473713 1.31976265 4.759579 3.46 6l84.75 48.93c2.1435953 1.239992 4.7864047 1.239992 6.93 0l84.75-48.93c2.140237-1.240421 3.45842-3.526287 3.46-6v-97.86c.000476-2.4742638-1.318256-4.7610829-3.46-6zm-17.91 95.52-70.31 40.6-70.35-40.6v-81.17l70.31-40.59v75.19c.0028468 1.237253.6642599 2.379395 1.7359539 2.99768s2.3915249.619169 3.4640461.00232l65.15-37.6z" fill="#ed485f"/></g></svg>

<?xml version="1.0" encoding="UTF-8"?> <svg xmlns="http://www.w3.org/2000/svg" xmlns:xlink="http://www.w3.org/1999/xlink" width="607px" height="211px" viewBox="0 0 607 211"><!-- Generator: Sketch 54.1 (76490) - https://sketchapp.com --><title>Heap-RGB_Logo-Horizontal-Lockup-Color</title><desc>Created with Sketch.</desc><g id="Page-1" stroke="none" stroke-width="1" fill="none" fill-rule="evenodd"><g id="Heap-RGB_Logo-Horizontal-Lockup-Color" fill-rule="nonzero"><g id="Group" transform="translate(228.000000, 44.000000)" fill="#2D124E"><path d="M244.52,31.7 C230.43,31.7 215.87,39.78 210.16,49.92 L218.89,54.97 L225.22,58.62 C227.86,53.01 236.34,48.71 244.16,48.71 L244.52,48.71 C255.64,48.89 261.13,55.8 261.13,64.71 L261.13,71.92 C257.53,69.31 248.52,66.51 240.51,66.51 C220.9,66.51 205.88,78.32 205.88,95.13 C205.88,113.34 220.88,124.13 239.11,124.13 C248.198027,124.104867 256.764675,119.882443 262.32,112.69 L264.1,122.53 L280.15,122.53 L280.15,64.32 C280.11,44.12 266.92,31.72 244.52,31.7 L244.52,31.7 Z M243.37,108 L242.78,108 C233.78,108 224.46,104.17 224.46,95.19 C224.46,86.42 233.8,82.62 242.78,82.59 L243.37,82.59 C252.37,82.59 261.69,86.42 261.69,95.19 C261.69,104.12 252.35,107.92 243.37,108 Z" id="Shape"></path><path d="M181,96.91 C176.21,104.21 168.21,107.75 158.61,107.75 C145.8,107.75 136.79,98.34 136.19,82.75 L196.84,82.75 L196.84,75.55 C196.84,49.55 183.23,31.72 158.21,31.72 C133.99,31.72 116.57,51.72 116.57,78.35 C116.57,105.77 133.79,124.58 158.57,124.58 C176.05,124.58 189.57,117.34 195.35,105.25 L181,96.91 Z M158.41,48.51 C170.62,48.51 176.83,57.32 177.03,68.12 L136.76,68.12 C139.16,55.31 147.37,48.51 158.38,48.51 L158.41,48.51 Z" id="Shape"></path><path d="M315.18,155.61 L295.18,155.61 L295.18,33.7 L312,33.7 L313.63,44.8 C317.33,39.73 324.5,31.7 338.52,31.7 C364.52,31.7 379,53.31 379,78.13 C379,102.95 363.78,124.56 337.76,124.56 C327.96,124.56 319.15,119.96 315.15,114.96 L315.18,155.61 Z M336.34,49.61 C322.14,49.61 313.66,61.76 313.66,78.09 C313.66,94.42 322.14,106.57 336.34,106.57 C350.54,106.57 359,94.46 359,78.13 C359,61.8 350.53,49.65 336.34,49.65 L336.34,49.61 Z" id="Shape"></path><polygon id="Path" points="103.64 0.61 103.64 122.61 82.82 122.61 82.82 70.79 21 70.79 21 122.56 0.15 122.56 0.15 0.61 21 0.61 21 52.38 82.85 52.38 82.85 0.61"></polygon></g><path d="M180.57,50.65 L95.82,1.72 C93.6764047,0.480008347 91.0335953,0.480008347 88.89,1.72 L4.14,50.65 C1.99825628,51.8889171 0.679523925,54.1757362 0.68,56.65 L0.68,154.51 C0.681579939,156.983713 1.99976265,159.269579 4.14,160.51 L88.89,209.44 C91.0335953,210.679992 93.6764047,210.679992 95.82,209.44 L180.57,160.51 C182.710237,159.269579 184.02842,156.983713 184.03,154.51 L184.03,56.65 C184.030476,54.1757362 182.711744,51.8889171 180.57,50.65 L180.57,50.65 Z M162.66,146.17 L92.35,186.77 L22,146.17 L22,65 L92.31,24.41 L92.31,99.6 C92.3128468,100.837253 92.9742599,101.979395 94.0459539,102.59768 C95.1176479,103.215965 96.4374788,103.216849 97.51,102.6 L162.66,65 L162.66,146.17 Z" id="Shape" fill="#ED485F"></path></g></g></svg>
